X: 336
T:Star of the County Down Jig
R: Jig
N: page 115
N: heptatonic
N: matches 335
M:6/8
L:1/8
K:E minor
AG | "Em"E2 E EDE | "G"G2 G AGA | "Em"BAG E2 B, | "D"D4 AG |
"Em"E2 E EDE | "G"G2 G AGA | "Em"BAG "Bm"E2 D | "Em"E4 Bc |
"G"d2 B BAG | "D"ABA AGA | "Em"BAG E2 E | "D"D4 AG |
"C"E2 E EDE | "G"GFG "D"AGA | "Em"BAG "C"E2 D | "Em"E4 Bc |
"G"ded dBG | "D"AGA BGA | "Em"BAG E2 B, | "D"D4 B,D |
"Em"EGE EDE | "G"GFG "D"BGA | "Em"BAG "C"E2 D | "Em"E3 E3 |]
